X:855
T:Mitt i Juli
C:Jonas Olsson
R:Polska
Z:Transcribed to abc by Robert Boström 2008-12-28
M:3/4
L:1/8
K:G
|:"G"G/2A/2B/2c/2 dd BG-|G"C"e- ec Ad|"G"Bc/2B/2 "/F#"Ad "/E"GF|"D"D"C"E "C"E4|
"C"EC "D"D3/2F/2 Ac-|"G"cB- BA BG-|"C"Gc- ce "D"dA|"G"B2 "/B"d2 "C"e2-|
eg "D"fa "Em"g2|"C"e/2f/2e/2d/2 "Am"ec "D"AG|"D"FG "G"G4:||:"D"A3/2G/2 AB cA|
"G"B3/2A/2 Bd BG|"D"A3/2G/2 AB cA-|"G"AB- BG D2|"D"A3/2G/2 AB cA|
"G"BB "/A"cc "/B"dB|"/A"c"/B"d "C"e2 "D"fe/2f/2|"Em"g/2a/2g/2f/2 g2 d2|"C"e/2f/2e/2d/2 "Am"ec "D"AG|
"D"FG "G"G4:|
(:musicend:)

(:music:)
